hornpipes/bobbycaseys.htmlhornpipes/bobbycaseys.htmlhornpipes/bobbycaseys.htmlhornpipes/bobbycaseys.htmlhornpipes/bobbycaseys.htmlhornpipes/bobbycaseys.htmlhornpipes/bobbycaseys.htmlhornpipes/bobbycaseys.htmlhornpipes/bobbycaseys.htmlFrom <I>Mike McGoldrick: Morning Rory</I>
hornpipes/bobbycaseys.htmlhornpipes/bobbycaseys.html<PRE>T:Custy's
T:Custy's
M:6/8
L:1/8
R:jig
D:Mike McGoldrick: Morning Rory
Z:Devin McCabe
K:AMin
B|:cde AGE|GAB ~A3|eag edc|(d~e2 AGE|
!c2e dcA|~G3 Gcd|eag edc|1dBG A2B:|2dBG Aeg|
!:a3 ged|edg edc|~A3 GAc|dec deg|
!aeg dec|~A3 GEG|cde ged|1cAG Aeg:|2cAG A2B||

%  ABC2Win Version 2.1 2/10/2001
hornpipes/bobbycaseys.htmlhornpipes/bobbycaseys.htmlhornpipes/bobbycaseys.htmlhornpipes/bobbycaseys.htmlhornpipes/bobbycaseys.htmlhornpipes/bobbycaseys.htmlhornpipes/bobbycaseys.html